X:1
T:Title
%%score { ( 1 4 ) | ( 2 3 ) }
L:1/8
M:6/8
K:Eb
V:1 treble nm="Grand Piano"
V:4 treble 
V:2 bass 
V:3 bass 
V:1
 z3 z2[Q:1/4=100] B | B>=AB c2 c | B2 G B2 G | E2 E [DF][CE][DF] |[M:5/8] [EG]-[EG]- [EG]3 | %5
[M:1/8] [GB] |[M:3/4] [Ge]2 [Gc] [Ad]2 [AB] | [Ac]2 [Ad] [GB]2 G | F2 B=A- A/G/A | %9
[M:5/8] [DB]-[DB]- [DB]3 |[M:1/8] [GB] |[M:3/4] [GB]2 GG A[EGB] | [FA]2- [B,F-A-] [DFA]2 A | %13
 d2 c [GB]2 [FA] |[M:5/8] [EG]-[EG]- [EG]3 |[M:1/8] [B,GB] |[M:3/4] e>d [Ge] [GB]2 G | %17
 AB [Ac] [GB]2 [GB] | cd e e2 [Fd] |[M:5/8] [Ge]-[Ge]- [Ge]3 |] %20
V:2
 z3 z2 [E,G,E] | [E,E]->[E,_G,E][E,=G,E] [E,A,E]2 [E,A,E] | [E,G,E]2 [E,B,E] [E,G,E]2 [E,G,B,] | %3
 [C,G,C]2 [C,G,C] [B,,B,]2 [B,,B,] |[M:5/8] [E,B,]-[E,B,]- [E,B,]3 |[M:1/8] [E,B,] | %6
[M:3/4] [E,B,]2 [E,B,] [F,B,]2 [F,B,] | [D,B,]2 [D,B,] [E,B,]2 [E,B,E] | %8
 [F,B,D]2 [F,DF] [F,CE]2 [F,CE] |[M:5/8] [B,,B,]-[B,,B,]- [B,,B,]3 |[M:1/8] [E,B,] | %11
[M:3/4] [E,E]2 [E,B,E]E FE, | F,2 D, B,,2[K:treble] [B,DF] | %13
 [B,FA]2 [B,FA][K:bass] [B,,B,]2 [B,,B,] |[M:5/8] [E,B,]2 B, G,2 |[M:1/8] E, | %16
[M:3/4] [E,B,]2 [E,B,] [E,E]2 [E,B,E] | [F,B,D]2 [F,D] [G,E]2 [E,E] | .E2 z2 z2[K:bass] | %19
[M:5/8] [E,B,]-[E,B,]- [E,B,]3 |] %20
V:3
 x6 | .G,3 z3 | x6 | x6 |[M:5/8] x5 |[M:1/8] x |[M:3/4] x6 | x6 | x6 |[M:5/8] x5 |[M:1/8] x | %11
[M:3/4] z2 z .[E,B,]3 | x5[K:treble] x | x3[K:bass] x3 |[M:5/8] x5 |[M:1/8] x |[M:3/4] x6 | x6 | %18
 [A,A]-[A,DA] [A,CA] [B,G]2[K:bass] [B,,B,] |[M:5/8] x5 |] %20
V:4
 x6 | x6 | x6 | x6 |[M:5/8] x5 |[M:1/8] x |[M:3/4] x6 | x6 | x6 |[M:5/8] x5 |[M:1/8] x | %11
[M:3/4] x6 | D2 z2 z2 | x6 |[M:5/8] z z2 B,2 |[M:1/8] x |[M:3/4] G2 z2 z2 | x6 | x6 |[M:5/8] x5 |] %20

